X:3685
T:Morpeth Rant
A:Northumberland
M:4/4
O:England
R:Reel
Z:Richard Robinson 
%%TUNEURL: http://www.leeds.ac.uk/music/Info/RRTuneBk/gettune/00000869.html
%%ID:00000869
K:D
A|\
d2AG FDFA|BGBd cAce|d2f2 gfed|c2e2 e2Ac|\
d2AG FDFA|BGBd cAce|
d2f2 gfec|A2d2 d3::\
A|\
dfaf dfaf|gfef g2ef|
gfed cABc|defg f2A2|\
dfaf dfaf|gfef g2ef|gfed cABc|d2f2 d3:|
